public/images/icons/icn_cotisation.svg

<svg width="36" height="20" viewBox="0 0 36 20" fill="none" xmlns="http://www.w3.org/2000/svg">
<path fill-rule="evenodd" clip-rule="evenodd" d="M19.4083 6.39473C19.3609 6.10437 19.3363 5.80638 19.3363 5.50265C19.3363 2.46362 21.7999 0 24.839 0C27.878 0 30.3416 2.46362 30.3416 5.50265C30.3416 5.66246 30.3348 5.82069 30.3215 5.97705C30.6371 5.7861 31.1137 5.55078 31.6257 5.40434C32.1401 5.2572 32.878 5.14509 33.5062 5.49178L33.5206 5.49973L33.5225 5.5008C33.7401 5.62086 33.9979 5.76312 34.227 5.92401C34.4589 6.08693 34.723 6.31008 34.9006 6.61822C35.0949 6.95524 35.1605 7.3507 35.0499 7.77424C34.9475 8.16641 34.7065 8.5375 34.3801 8.89779C33.8829 9.44659 32.7158 10.4696 31.5072 11.4911C30.283 12.5256 28.9646 13.6013 28.1218 14.2779C27.6158 14.6961 26.7299 15.2958 25.6581 15.7943C24.5867 16.2926 23.2774 16.7142 21.9438 16.7142L21.8419 16.7142C20.448 16.7143 19.5084 16.7143 18.6763 16.5024C17.7877 16.276 17.0625 15.8226 16.0231 15.0577C15.6619 14.7919 15.372 14.5702 15.1463 14.3976L15.1454 14.3969C15.0478 14.3222 14.9622 14.2568 14.8882 14.201C14.7897 14.1269 14.7142 14.0716 14.6535 14.0298C14.7107 14.8276 14.3334 15.6451 13.5814 16.0318L6.25768 19.7977C5.28162 20.2996 4.18071 19.8216 3.7384 18.8697L0.594043 12.1032C0.137138 11.12 0.479021 9.85478 1.47592 9.34504L8.79993 5.60011C9.75173 5.11343 10.8207 5.55698 11.2822 6.46185L13.3242 5.00354L13.3564 4.98648C13.7773 4.75419 14.4437 4.49744 15.2052 4.39019C15.9686 4.28267 16.8811 4.31847 17.7451 4.73851C18.1866 4.95312 18.4756 5.31674 18.6638 5.57177C18.8574 5.8342 19.1129 6.12943 19.4083 6.39473ZM20.8178 5.50265C20.8178 3.28182 22.6182 1.48148 24.839 1.48148C27.0598 1.48148 28.8601 3.28182 28.8601 5.50265C28.8601 6.25887 28.6514 6.96633 28.2884 7.57057L26.9607 8.62231C26.8324 8.04229 26.5009 7.62047 26.0981 7.34607C25.6164 7.01798 25.0644 6.91738 24.6899 6.91738L24.6684 6.91715L21.1733 7.15818C20.945 6.65329 20.8178 6.09282 20.8178 5.50265ZM15.4065 5.83705C15.9827 5.75589 16.5843 5.7967 17.1136 6.05401C17.2146 6.1031 17.3267 6.21034 17.4982 6.44272C17.8221 6.8817 18.2968 7.41291 18.8781 7.84108C19.4545 8.26571 20.1937 8.63085 21.0285 8.63085L21.05 8.63107L24.7107 8.37862C24.8711 8.38285 25.1066 8.4349 25.2842 8.55589C25.3609 8.60812 25.4298 8.67371 25.4802 8.76642C25.5306 8.85922 25.5659 8.98532 25.5659 9.16347L25.5651 9.20457L25.572 9.2578C25.5931 9.4209 25.5833 9.68238 25.4957 9.91802C25.4463 10.051 25.3767 10.1695 25.2709 10.2628C25.1657 10.3558 25.0188 10.4291 24.8064 10.4626C23.5292 10.664 20.924 11.0508 19.7792 11.2193L19.6842 11.2333L19.8943 12.6789L19.9893 12.6649C21.1329 12.4966 23.7454 12.1087 25.0312 11.906C25.9437 11.7621 26.4885 11.2251 26.7699 10.6328L31.0565 7.23707C31.2818 7.09912 31.6483 6.91669 32.0226 6.80964C32.2331 6.74944 32.4041 6.72494 32.5366 6.72377C32.6705 6.7226 32.7584 6.74531 32.808 6.77273C33.0449 6.90344 33.2374 7.01061 33.396 7.12198C33.5575 7.23543 33.6223 7.31224 33.6448 7.35134C33.6487 7.35808 33.6502 7.36123 33.651 7.3631C33.6515 7.36438 33.6516 7.36514 33.6516 7.36514C33.6518 7.36638 33.6529 7.37574 33.6457 7.40307C33.6265 7.47663 33.5529 7.64231 33.3072 7.91353C32.889 8.37513 31.8059 9.33078 30.5735 10.3723C29.3587 11.3989 28.0478 12.4685 27.2122 13.1393L27.2085 13.1422L27.2074 13.1431L27.2037 13.1462C26.7936 13.4857 26.011 14.0207 25.049 14.4681C24.0838 14.917 22.9903 15.2532 21.9438 15.2532C20.4191 15.2532 19.6681 15.248 19.0326 15.0861C18.4339 14.9336 17.9004 14.6293 16.8801 13.8785C16.5296 13.6205 16.2609 13.4149 16.0387 13.245C15.9367 13.167 15.8442 13.0962 15.7583 13.0315C15.5201 12.8521 15.2681 12.6655 15.0138 12.5728C14.8613 12.5171 14.6962 12.4886 14.518 12.504C14.3707 12.5167 14.2441 12.5571 14.1436 12.5978L11.9098 7.80517L14.089 6.24882C14.3702 6.09984 14.8519 5.91515 15.4065 5.83705ZM9.4576 6.90257C9.62159 6.81872 9.86651 6.86182 10 7.14823L13.1441 13.8937C13.3053 14.2397 13.146 14.615 12.9207 14.7309L5.59706 18.4968C5.43278 18.5813 5.18708 18.5383 5.05354 18.2509L1.90918 11.4844C1.74815 11.1378 1.9083 10.7627 2.1336 10.6475L9.4576 6.90257Z" fill="black"/>
</svg>

<svg fill="none" viewBox="0 0 36 20"><path fill="#000" fill-rule="evenodd" d="M19.408 6.395a5.503 5.503 0 1110.913-.418 5.63 5.63 0 011.305-.573c.514-.147 1.252-.259 1.88.088l.015.008h.002c.217.12.475.263.704.424.232.163.496.386.674.694.194.337.26.733.149 1.156-.102.392-.343.763-.67 1.124-.497.549-1.664 1.572-2.873 2.593a187.43 187.43 0 01-3.385 2.787c-.506.418-1.392 1.018-2.464 1.516-1.071.499-2.38.92-3.714.92h-.102c-1.394 0-2.334 0-3.166-.212-.888-.226-1.613-.68-2.653-1.444-.361-.266-.651-.488-.877-.66v-.001l-.258-.196a7.246 7.246 0 00-.235-.171c.058.798-.32 1.615-1.072 2.002l-7.323 3.766c-.976.502-2.077.024-2.52-.928L.594 12.103c-.457-.983-.115-2.248.882-2.758L8.8 5.6c.952-.487 2.02-.043 2.482.862l2.042-1.458.032-.018a5.601 5.601 0 011.85-.596c.763-.107 1.675-.072 2.54.349.44.214.73.578.918.833.193.262.449.557.744.823zm1.41-.892a4.021 4.021 0 117.47 2.068l-1.327 1.051a2.055 2.055 0 00-.863-1.276 2.583 2.583 0 00-1.408-.429h-.022l-3.495.241a4.008 4.008 0 01-.355-1.655zm-5.412.334c.577-.081 1.178-.04 1.708.217.1.05.213.156.384.389.324.439.799.97 1.38 1.398.576.425 1.316.79 2.15.79h.022l3.66-.252c.161.004.397.056.574.177a.597.597 0 01.196.21c.05.093.086.22.086.397v.042l.006.053c.021.163.011.424-.076.66a.832.832 0 01-.225.345.886.886 0 01-.465.2c-1.277.201-3.882.588-5.027.756l-.095.014.21 1.446.095-.014c1.144-.168 3.756-.556 5.042-.759.913-.144 1.457-.68 1.739-1.273l4.287-3.396c.225-.138.591-.32.966-.427.21-.06.381-.085.514-.086a.57.57 0 01.271.049c.237.13.43.238.588.349.161.113.226.19.249.23a.112.112 0 01.007.013c0 .001 0 .01-.006.038-.02.074-.093.24-.339.51-.418.462-1.501 1.418-2.734 2.46a186.012 186.012 0 01-3.36 2.766l-.005.003v.001l-.004.003c-.41.34-1.193.875-2.155 1.322-.965.449-2.059.785-3.105.785-1.525 0-2.276-.005-2.911-.167-.6-.152-1.133-.457-2.153-1.207a49.45 49.45 0 01-.841-.634l-.28-.213c-.239-.18-.49-.367-.745-.46a1.143 1.143 0 00-.496-.068 1.289 1.289 0 00-.374.094L11.91 7.805l2.179-1.556a4.213 4.213 0 011.317-.412zM9.458 6.903c.164-.084.409-.041.542.245l3.144 6.746c.161.346.002.721-.223.837l-7.324 3.766c-.164.084-.41.041-.543-.246l-3.145-6.767c-.16-.346 0-.721.225-.836l7.324-3.745z" clip-rule="evenodd"/></svg>
